X: 1
T: Lillibullero
P: piffero primo a0824
O: cfd bk2, mod
%R: jig
F: http://ancients.sudburymuster.org/mus/sng/pdf/lillibulleroC0.pdf
Z: 2020 John Chambers <jc:trillian.mit.edu>
M: 6/8
L: 1/8
K: G
z |\
G>AG B2B | A>BA c2c | BdG c2B | AGF G2 :| z | g2f g2d | de=f e2e |
def gde | dcB A2d | edc Bcd | edc Bcd | egG c2B | AGF "^DC"G2 |]
